packages/sources/icons/src/vitamix/pinterest-fill.svg

<svg width="16" height="16" viewBox="0 0 16 16" fill="none" xmlns="http://www.w3.org/2000/svg">
<path d="M8.91327 1.396C5.6148 0.942256 2.48705 2.99098 1.58514 6.19604C0.683233 9.4011 2.28356 12.7803 5.33461 14.1133C5.2947 13.6012 5.33133 13.086 5.44327 12.5847C5.56661 12.0253 6.30727 8.94266 6.30727 8.94266C6.15978 8.61206 6.08608 8.2533 6.09127 7.89133C6.09127 6.90133 6.66261 6.16266 7.37327 6.16266C7.63161 6.1589 7.87881 6.26767 8.05057 6.46068C8.22233 6.65368 8.30167 6.91184 8.26794 7.168C8.26794 7.768 7.88261 8.676 7.68127 9.528C7.60058 9.84488 7.67525 10.1812 7.88245 10.4342C8.08964 10.6872 8.4047 10.8267 8.73127 10.81C9.99661 10.81 10.8446 9.18933 10.8446 7.276C10.8446 5.80933 9.87327 4.71066 8.08261 4.71066C7.21683 4.67702 6.37514 4.99989 5.75397 5.60392C5.13281 6.20795 4.78652 7.04029 4.79594 7.90666C4.77685 8.38221 4.93027 8.84864 5.22794 9.22C5.34221 9.30529 5.38625 9.45591 5.33594 9.58933C5.30527 9.712 5.22794 10.0047 5.19727 10.112C5.18434 10.1858 5.13711 10.2491 5.07003 10.2825C5.00294 10.3159 4.92398 10.3155 4.85727 10.2813C3.93461 9.912 3.49994 8.89666 3.49994 7.73733C3.49994 5.83933 5.08927 3.56733 8.26927 3.56733C10.7999 3.56733 12.4826 5.41866 12.4826 7.39866C12.4826 10.0047 11.0313 11.964 8.88661 11.964C8.23517 11.9848 7.61819 11.6716 7.25061 11.1333C7.25061 11.1333 6.86527 12.6773 6.78927 12.9693C6.63413 13.4738 6.40521 13.9525 6.10994 14.39C6.72527 14.5767 7.36461 14.67 8.00727 14.6673C9.77592 14.6687 11.4725 13.9665 12.7227 12.7154C13.9728 11.4643 14.6739 9.76731 14.6713 7.99866C14.6696 4.66949 12.2125 1.85167 8.91461 1.39666L8.91327 1.396Z" fill="#001018"/>
</svg>

<svg width="16" height="16" fill="none" xmlns="http://www.w3.org/2000/svg"><path d="M8.913 1.396a6.669 6.669 0 0 0-3.578 12.717 5.17 5.17 0 0 1 .108-1.528c.124-.56.864-3.642.864-3.642a2.493 2.493 0 0 1-.216-1.052c0-.99.572-1.728 1.282-1.728a.89.89 0 0 1 .895 1.005c0 .6-.385 1.508-.587 2.36a1.03 1.03 0 0 0 1.05 1.282c1.266 0 2.114-1.62 2.114-3.534 0-1.467-.972-2.565-2.762-2.565a3.164 3.164 0 0 0-3.287 3.196c-.02.475.134.942.432 1.313a.32.32 0 0 1 .108.37c-.03.122-.108.415-.139.522a.236.236 0 0 1-.34.17C3.935 9.911 3.5 8.896 3.5 7.736c0-1.898 1.59-4.17 4.77-4.17 2.53 0 4.213 1.852 4.213 3.832 0 2.606-1.452 4.565-3.596 4.565a1.907 1.907 0 0 1-1.636-.83s-.386 1.543-.462 1.835a5.351 5.351 0 0 1-.68 1.421 6.44 6.44 0 0 0 1.898.277A6.659 6.659 0 0 0 14.671 8a6.668 6.668 0 0 0-5.756-6.602l-.002-.001z" fill="#001018"/></svg>
